assets/img/edit.svg

<svg width="18" height="18" viewBox="0 0 18 18" fill="none" xmlns="http://www.w3.org/2000/svg">
<path fill-rule="evenodd" clip-rule="evenodd" d="M12.4328 16.7766H5.81475C3.234 16.7766 1.5 14.9653 1.5 12.2698V6.03434C1.5 3.33884 3.234 1.52759 5.81475 1.52759H8.619C8.9295 1.52759 9.1815 1.77959 9.1815 2.09009C9.1815 2.40059 8.9295 2.65259 8.619 2.65259H5.81475C3.87675 2.65259 2.625 3.98009 2.625 6.03434V12.2698C2.625 14.3241 3.87675 15.6516 5.81475 15.6516H12.4328C14.3708 15.6516 15.6233 14.3241 15.6233 12.2698V9.24884C15.6233 8.93834 15.8753 8.68634 16.1858 8.68634C16.4963 8.68634 16.7483 8.93834 16.7483 9.24884V12.2698C16.7483 14.9653 15.0135 16.7766 12.4328 16.7766Z" fill="#130F26"/>
<path fill-rule="evenodd" clip-rule="evenodd" d="M6.65065 11.5712H8.8834C9.1684 11.5712 9.4354 11.461 9.63715 11.2592L15.2689 5.62749C15.4999 5.39649 15.6274 5.08899 15.6274 4.76199C15.6274 4.43424 15.4999 4.12599 15.2689 3.89499L14.3562 2.98224C13.8784 2.50599 13.1014 2.50599 12.6229 2.98224L7.01815 8.58699C6.8239 8.78124 6.71365 9.03924 6.7069 9.31299L6.65065 11.5712ZM8.8834 12.6962H6.0739C5.9224 12.6962 5.7769 12.6347 5.67115 12.526C5.5654 12.418 5.50765 12.2717 5.5114 12.1195L5.5819 9.28524C5.59615 8.72124 5.8234 8.19099 6.2224 7.79124H6.22315L11.8279 2.18649C12.7444 1.27149 14.2347 1.27149 15.1512 2.18649L16.0639 3.09924C16.5087 3.54324 16.7532 4.13349 16.7524 4.76199C16.7524 5.39049 16.5079 5.97999 16.0639 6.42324L10.4322 12.055C10.0189 12.4682 9.4684 12.6962 8.8834 12.6962Z" fill="#130F26"/>
<path fill-rule="evenodd" clip-rule="evenodd" d="M14.7983 7.43751C14.6543 7.43751 14.5103 7.38276 14.4008 7.27251L10.9763 3.84801C10.7566 3.62826 10.7566 3.27201 10.9763 3.05226C11.1961 2.83251 11.5516 2.83251 11.7713 3.05226L15.1958 6.47751C15.4156 6.69726 15.4156 7.05276 15.1958 7.27251C15.0863 7.38276 14.9423 7.43751 14.7983 7.43751Z" fill="#130F26"/>
</svg>

<svg xmlns="http://www.w3.org/2000/svg" width="18" height="18" fill="none"><path fill="#130F26" fill-rule="evenodd" d="M12.433 16.777H5.815c-2.581 0-4.315-1.812-4.315-4.507V6.034c0-2.695 1.734-4.506 4.315-4.506h2.804a.563.563 0 0 1 0 1.125H5.815c-1.938 0-3.19 1.327-3.19 3.381v6.236c0 2.054 1.252 3.382 3.19 3.382h6.618c1.938 0 3.19-1.328 3.19-3.382V9.249a.563.563 0 0 1 1.125 0v3.02c0 2.696-1.735 4.508-4.315 4.508" clip-rule="evenodd"/><path fill="#130F26" fill-rule="evenodd" d="M6.65 11.571h2.233c.285 0 .552-.11.754-.312l5.632-5.632c.23-.23.358-.538.358-.865 0-.328-.127-.636-.358-.867l-.913-.913a1.23 1.23 0 0 0-1.733 0L7.018 8.587a1.06 1.06 0 0 0-.311.726zm2.233 1.125h-2.81a.56.56 0 0 1-.562-.576l.07-2.835a2.18 2.18 0 0 1 .641-1.494h.001l5.605-5.605a2.355 2.355 0 0 1 3.323 0l.913.913c.445.444.69 1.034.688 1.663a2.33 2.33 0 0 1-.688 1.661l-5.632 5.632a2.18 2.18 0 0 1-1.549.641" clip-rule="evenodd"/><path fill="#130F26" fill-rule="evenodd" d="M14.798 7.438a.56.56 0 0 1-.397-.165l-3.425-3.425a.563.563 0 0 1 .795-.796l3.425 3.426a.562.562 0 0 1-.398.96" clip-rule="evenodd"/></svg>
